tools/download-figma-icons/icons/outlined-large/play.svg

<svg width="64" height="64" viewBox="0 0 64 64" fill="none" xmlns="http://www.w3.org/2000/svg">
<path fill-rule="evenodd" clip-rule="evenodd" d="M7.14543 57.9996H56.8541C59.14 57.9996 61 56.1406 61 53.8536V19.9578H3.00047V53.8536C3.00047 56.1406 4.85945 57.9996 7.14543 57.9996ZM16.9274 6.99995H7.14543C4.85945 6.99995 3.00047 8.85893 3.00047 11.1459V16.9579H11.0324L16.9274 6.99995ZM49.4551 6.99995H36.6882L30.7923 16.9579H43.5582L49.4551 6.99995ZM20.4163 6.99995L14.5194 16.9579H27.3043L33.2002 6.99995H20.4163ZM61 16.9579V11.1459C61 8.85893 59.14 6.99995 56.8541 6.99995H52.9421L47.0451 16.9579H61ZM7.14543 3.99997H56.8541C60.794 3.99997 64 7.20494 64 11.1459V53.8536C64 57.7946 60.794 60.9995 56.8541 60.9995H7.14543C3.20546 60.9995 0.000488278 57.7946 0.000488278 53.8536V11.1459C0.000488278 7.20494 3.20546 3.99997 7.14543 3.99997ZM25.7022 48.3328L40.4421 38.8249C40.4631 38.8119 40.5251 38.7709 40.5251 38.6739C40.5251 38.5787 40.4677 38.539 40.4455 38.5236L40.4431 38.5219L25.7022 29.013L25.7001 29.0117C25.6835 29.0012 25.6513 28.981 25.6062 28.981C25.5812 28.981 25.5512 28.988 25.5172 29.007C25.4232 29.057 25.4232 29.136 25.4232 29.165V48.1808C25.4232 48.2108 25.4232 48.2888 25.5172 48.3398C25.6123 48.3904 25.676 48.3496 25.7015 48.3333L25.7022 48.3328ZM27.3292 26.492L42.0691 36.0009C42.9801 36.5879 43.5251 37.5869 43.5251 38.6729C43.5261 39.7579 42.9811 40.7579 42.0691 41.3459L27.3292 50.8538C26.8042 51.1918 26.2052 51.3618 25.6042 51.3618C25.0822 51.3618 24.5582 51.2338 24.0832 50.9738C23.0592 50.4168 22.4232 49.3458 22.4232 48.1808V29.165C22.4232 28 23.0592 26.929 24.0832 26.372C25.1062 25.814 26.3482 25.86 27.3292 26.492Z" fill="black"/>
</svg>

<svg width="64" height="64" viewBox="0 0 64 64" fill="none" xmlns="http://www.w3.org/2000/svg"><path fill-rule="evenodd" clip-rule="evenodd" d="M7.145 58h49.71A4.15 4.15 0 0 0 61 53.854V19.958H3v33.896A4.15 4.15 0 0 0 7.145 58Zm9.782-51H7.145A4.15 4.15 0 0 0 3 11.146v5.812h8.032L16.927 7Zm32.528 0H36.688l-5.896 9.958h12.766L49.455 7ZM20.416 7l-5.897 9.958h12.785L33.2 7H20.416ZM61 16.958v-5.812A4.15 4.15 0 0 0 56.854 7h-3.912l-5.897 9.958H61ZM7.145 4h49.71C60.793 4 64 7.205 64 11.146v42.708c0 3.94-3.206 7.145-7.146 7.145H7.145C3.205 61 0 57.795 0 53.855V11.146C0 7.205 3.205 4 7.145 4Zm18.557 44.333 14.74-9.508a.168.168 0 0 0 .083-.151.167.167 0 0 0-.08-.15l-.002-.002-14.74-9.509-.003-.001a.17.17 0 0 0-.094-.031.183.183 0 0 0-.089.026c-.094.05-.094.129-.094.158v19.016c0 .03 0 .108.094.159.095.05.159.01.184-.007h.001Zm1.627-21.841 14.74 9.509a3.166 3.166 0 0 1 1.456 2.672 3.166 3.166 0 0 1-1.456 2.673l-14.74 9.508a3.183 3.183 0 0 1-4.906-2.673V29.165c0-1.165.636-2.236 1.66-2.793a3.177 3.177 0 0 1 3.246.12Z" fill="currentColor"/></svg>
